images_elementary_svg/cmd/sc_insertpagebreak.svg

<?xml version="1.0" encoding="UTF-8" standalone="no"?>
<svg
   xmlns:dc="http://purl.org/dc/elements/1.1/"
   xmlns:cc="http://creativecommons.org/ns#"
   xmlns:rdf="http://www.w3.org/1999/02/22-rdf-syntax-ns#"
   xmlns:svg="http://www.w3.org/2000/svg"
   xmlns="http://www.w3.org/2000/svg"
   xmlns:xlink="http://www.w3.org/1999/xlink"
   xmlns:sodipodi="http://sodipodi.sourceforge.net/DTD/sodipodi-0.dtd"
   xmlns:inkscape="http://www.inkscape.org/namespaces/inkscape"
   viewBox="0 0 16 16"
   version="1.1"
   id="svg26"
   sodipodi:docname="sc_insertpagebreak.svg"
   inkscape:version="0.92.3 (unknown)"
   inkscape:export-filename="/home/rizmut/Dokumen/Rizmut/Github/libreoffice-style-elementary/images_elementary_svg/cmd/sc_insertpagebreak.svg.png"
   inkscape:export-xdpi="96"
   inkscape:export-ydpi="96">
  <metadata
     id="metadata32">
    <rdf:RDF>
      <cc:Work
         rdf:about="">
        <dc:format>image/svg+xml</dc:format>
        <dc:type
           rdf:resource="http://purl.org/dc/dcmitype/StillImage" />
      </cc:Work>
    </rdf:RDF>
  </metadata>
  <defs
     id="defs30">
    <linearGradient
       gradientTransform="matrix(0.28571361,0,0,0.30419701,1.1428727,0.2326048)"
       gradientUnits="userSpaceOnUse"
       xlink:href="#linearGradient3600"
       id="linearGradient3940"
       y2="47.013336"
       x2="25.132275"
       y1="0.98520643"
       x1="25.132275" />
    <linearGradient
       id="linearGradient3600">
      <stop
         offset="0"
         style="stop-color:#f4f4f4;stop-opacity:1"
         id="stop3602" />
      <stop
         offset="1"
         style="stop-color:#dbdbdb;stop-opacity:1"
         id="stop3604" />
    </linearGradient>
    <linearGradient
       gradientTransform="matrix(0.24324324,0,0,0.35135133,2.1621636,-0.43242804)"
       gradientUnits="userSpaceOnUse"
       xlink:href="#linearGradient3977"
       id="linearGradient3095"
       y2="41.076912"
       x2="23.99999"
       y1="6.9230647"
       x1="23.99999" />
    <linearGradient
       id="linearGradient3977">
      <stop
         offset="0"
         style="stop-color:#ffffff;stop-opacity:1"
         id="stop3979" />
      <stop
         offset="0"
         style="stop-color:#ffffff;stop-opacity:0.23529412"
         id="stop3981" />
      <stop
         offset="1"
         style="stop-color:#ffffff;stop-opacity:0.15686275"
         id="stop3983" />
      <stop
         offset="1"
         style="stop-color:#ffffff;stop-opacity:0.39215687"
         id="stop3985" />
    </linearGradient>
    <linearGradient
       gradientTransform="matrix(0.25378586,0,0,0.30501865,19.128979,-0.68547704)"
       gradientUnits="userSpaceOnUse"
       xlink:href="#linearGradient3104-9"
       id="linearGradient3092"
       y2="2.9062471"
       x2="-51.786404"
       y1="50.786446"
       x1="-51.786404" />
    <linearGradient
       id="linearGradient3104-9">
      <stop
         offset="0"
         style="stop-color:#000000;stop-opacity:0.33950618"
         id="stop3106-5" />
      <stop
         offset="1"
         style="stop-color:#000000;stop-opacity:0.24691358"
         id="stop3108-5" />
    </linearGradient>
    <linearGradient
       inkscape:collect="always"
       xlink:href="#linearGradient3600"
       id="linearGradient1668"
       gradientUnits="userSpaceOnUse"
       gradientTransform="matrix(0.28571361,0,0,0.30419701,1.1428727,0.2326048)"
       x1="25.132275"
       y1="0.98520643"
       x2="25.132275"
       y2="47.013336" />
    <linearGradient
       inkscape:collect="always"
       xlink:href="#linearGradient3977"
       id="linearGradient1670"
       gradientUnits="userSpaceOnUse"
       gradientTransform="matrix(0.24324324,0,0,0.35135133,2.1621636,-0.43242804)"
       x1="23.99999"
       y1="6.9230647"
       x2="23.99999"
       y2="41.076912" />
    <linearGradient
       inkscape:collect="always"
       xlink:href="#linearGradient3104-9"
       id="linearGradient1672"
       gradientUnits="userSpaceOnUse"
       gradientTransform="matrix(0.25378586,0,0,0.30501865,19.128979,-0.68547704)"
       x1="-51.786404"
       y1="50.786446"
       x2="-51.786404"
       y2="2.9062471" />
    <radialGradient
       cx="64.575233"
       cy="48.605404"
       r="31.000002"
       fx="64.575233"
       fy="48.605404"
       id="radialGradient3259"
       xlink:href="#linearGradient3242-7-3-8-0-4-58-06"
       gradientUnits="userSpaceOnUse"
       gradientTransform="matrix(0,0.38528829,-0.41958841,0,32.389496,-16.793007)" />
    <linearGradient
       id="linearGradient3242-7-3-8-0-4-58-06">
      <stop
         id="stop3244-5-8-5-6-4-3-8"
         style="stop-color:#cdf87e;stop-opacity:1"
         offset="0" />
      <stop
         id="stop3246-9-5-1-5-3-0-7"
         style="stop-color:#a2e34f;stop-opacity:1"
         offset="0.26238" />
      <stop
         id="stop3248-7-2-0-7-5-35-9"
         style="stop-color:#68b723;stop-opacity:1"
         offset="0.66093999" />
      <stop
         id="stop3250-8-2-8-5-6-40-4"
         style="stop-color:#1d7e0d;stop-opacity:1"
         offset="1" />
    </linearGradient>
    <radialGradient
       cx="64.575233"
       cy="48.605404"
       r="31.000002"
       fx="64.575233"
       fy="48.605404"
       id="radialGradient3259-3"
       xlink:href="#linearGradient3242-7-3-8-0-4-58-06"
       gradientUnits="userSpaceOnUse"
       gradientTransform="matrix(0,0.38528829,-0.41958841,0,32.389496,-16.793007)" />
    <clipPath
       clipPathUnits="userSpaceOnUse"
       id="clipPath2442">
      <rect
         style="opacity:1;vector-effect:none;fill:#85026c;fill-opacity:1;stroke:none;stroke-width:1;stroke-linecap:butt;stroke-linejoin:miter;stroke-miterlimit:4;stroke-dasharray:none;stroke-dashoffset:0;stroke-opacity:0.43382353;marker:none"
         id="rect2444"
         width="9"
         height="5"
         x="2"
         y="10.999987" />
    </clipPath>
    <clipPath
       clipPathUnits="userSpaceOnUse"
       id="clipPath2446">
      <rect
         y="-1.3e-05"
         x="2"
         height="5"
         width="9"
         id="rect2448"
         style="opacity:1;vector-effect:none;fill:#85026c;fill-opacity:1;stroke:none;stroke-width:1;stroke-linecap:butt;stroke-linejoin:miter;stroke-miterlimit:4;stroke-dasharray:none;stroke-dashoffset:0;stroke-opacity:0.43382353;marker:none" />
    </clipPath>
  </defs>
  <sodipodi:namedview
     pagecolor="#ffffff"
     bordercolor="#666666"
     borderopacity="1"
     objecttolerance="10"
     gridtolerance="10"
     guidetolerance="10"
     inkscape:pageopacity="0"
     inkscape:pageshadow="2"
     inkscape:window-width="1366"
     inkscape:window-height="706"
     id="namedview28"
     showgrid="true"
     inkscape:zoom="10.429825"
     inkscape:cx="-0.94265798"
     inkscape:cy="0.79970241"
     inkscape:window-x="0"
     inkscape:window-y="0"
     inkscape:window-maximized="1"
     inkscape:current-layer="svg26">
    <inkscape:grid
       type="xygrid"
       id="grid2378" />
  </sodipodi:namedview>
  <g
     transform="translate(5,-10.999987)"
     id="g1666"
     clip-path="url(#clipPath2442)">
    <path
       d="m 3,1 c 2.2915074,0 9.999988,8.904e-4 9.999988,8.904e-4 L 13,15 C 13,15 6.3333332,15 3,15 3,10.333334 3,5.6666664 3,1 Z"
       id="path1660"
       style="display:inline;fill:url(#linearGradient1668);fill-opacity:1;stroke:none"
       inkscape:connector-curvature="0" />
    <path
       d="M 12.5,14.5 H 3.4999999 V 1.5 H 12.5 Z"
       id="path1662"
       style="fill:none;stroke:url(#linearGradient1670);stroke-width:1;stroke-linecap:round;stroke-linejoin:miter;stroke-miterlimit:4;stroke-dasharray:none;stroke-dashoffset:0;stroke-opacity:1"
       inkscape:connector-curvature="0" />
    <path
       d="m 2.4999621,0.49997396 c 2.5206756,0 11.0000629,9.54e-4 11.0000629,9.54e-4 l 1.3e-5,14.99909804 c 0,0 -7.3333841,0 -11.000076,0 0,-5.000017 0,-10.000035 10e-8,-15.00005204 z"
       id="path1664"
       style="display:inline;fill:none;stroke:url(#linearGradient1672);stroke-width:0.99992192;stroke-linecap:butt;stroke-linejoin:round;stroke-miterlimit:4;stroke-dasharray:none;stroke-dashoffset:0;stroke-opacity:1"
       inkscape:connector-curvature="0" />
  </g>
  <g
     id="g1960"
     transform="translate(5,11.000013)"
     clip-path="url(#clipPath2446)">
    <path
       inkscape:connector-curvature="0"
       style="display:inline;fill:url(#linearGradient3940);fill-opacity:1;stroke:none"
       id="path4160"
       d="m 3,1 c 2.2915074,0 9.999988,8.904e-4 9.999988,8.904e-4 L 13,15 C 13,15 6.3333332,15 3,15 3,10.333334 3,5.6666664 3,1 Z" />
    <path
       inkscape:connector-curvature="0"
       style="fill:none;stroke:url(#linearGradient3095);stroke-width:1;stroke-linecap:round;stroke-linejoin:miter;stroke-miterlimit:4;stroke-dasharray:none;stroke-dashoffset:0;stroke-opacity:1"
       id="rect6741-1"
       d="M 12.5,14.5 H 3.4999999 V 1.5 H 12.5 Z" />
    <path
       inkscape:connector-curvature="0"
       style="display:inline;fill:none;stroke:url(#linearGradient3092);stroke-width:0.99992192;stroke-linecap:butt;stroke-linejoin:round;stroke-miterlimit:4;stroke-dasharray:none;stroke-dashoffset:0;stroke-opacity:1"
       id="path4160-8"
       d="m 2.4999621,0.49997396 c 2.5206756,0 11.0000629,9.54e-4 11.0000629,9.54e-4 l 1.3e-5,14.99909804 c 0,0 -7.3333841,0 -11.000076,0 0,-5.000017 0,-10.000035 10e-8,-15.00005204 z" />
  </g>
  <path
     sodipodi:nodetypes="ccccc"
     inkscape:connector-curvature="0"
     style="fill:#9cde4a;stroke:#0f5a00;stroke-width:1;stroke-linecap:round;stroke-linejoin:round;stroke-miterlimit:4;stroke-dasharray:none;stroke-opacity:0.43382353"
     id="path4"
     d="m 9.5160424,6.5084746 h 1.9999996 v 2 H 9.5160424 Z" />
  <g
     style="fill:#9cde4a;stroke:#5ca12a;stroke-width:0.727;stroke-linecap:round;stroke-linejoin:round"
     transform="translate(-7.992577,-3.9999997)"
     id="g4351">
    <path
       d="M 10.5,10.5 V 8.4927137 h 3 V 10.5 h 2.007286 v 3 H 13.5 v 2.007286 h -3 V 13.5 H 8.4927137 v -3 z"
       id="path2262"
       style="color:#000000;display:inline;overflow:visible;visibility:visible;fill:url(#radialGradient3259-3);fill-opacity:1;fill-rule:nonzero;stroke:none;stroke-width:0.98542738;stroke-linecap:round;stroke-linejoin:round;stroke-miterlimit:4;stroke-dasharray:none;stroke-dashoffset:0;stroke-opacity:1;marker:none;enable-background:accumulate"
       inkscape:connector-curvature="0" />
    <path
       d="M 10.5,10.5 V 8.4927137 h 3 V 10.5 h 2.007286 v 3 H 13.5 v 2.007286 h -3 V 13.5 H 8.4927137 v -3 z"
       id="path2262-5"
       style="color:#000000;clip-rule:nonzero;display:inline;overflow:visible;visibility:visible;opacity:0.5;isolation:auto;mix-blend-mode:normal;color-interpolation:sRGB;color-interpolation-filters:linearRGB;solid-color:#000000;solid-opacity:1;fill:none;fill-opacity:1;fill-rule:nonzero;stroke:#0f5a00;stroke-width:1;stroke-linecap:round;stroke-linejoin:round;stroke-miterlimit:4;stroke-dasharray:none;stroke-dashoffset:0;stroke-opacity:1;marker:none;color-rendering:auto;image-rendering:auto;shape-rendering:auto;text-rendering:auto;enable-background:accumulate"
       inkscape:connector-curvature="0" />
    <rect
       y="9"
       x="11"
       height="1"
       width="2"
       id="rect4304"
       style="color:#000000;clip-rule:nonzero;display:inline;overflow:visible;visibility:visible;opacity:0.5;isolation:auto;mix-blend-mode:normal;color-interpolation:sRGB;color-interpolation-filters:linearRGB;solid-color:#000000;solid-opacity:1;fill:#ffffff;fill-opacity:1;fill-rule:nonzero;stroke:none;stroke-width:1;stroke-linecap:round;stroke-linejoin:round;stroke-miterlimit:4;stroke-dasharray:none;stroke-dashoffset:0;stroke-opacity:1;marker:none;color-rendering:auto;image-rendering:auto;shape-rendering:auto;text-rendering:auto;enable-background:accumulate" />
    <rect
       y="14"
       x="11"
       height="1"
       width="2"
       id="rect4304-6"
       style="color:#000000;clip-rule:nonzero;display:inline;overflow:visible;visibility:visible;opacity:0.2;isolation:auto;mix-blend-mode:normal;color-interpolation:sRGB;color-interpolation-filters:linearRGB;solid-color:#000000;solid-opacity:1;fill:#ffffff;fill-opacity:1;fill-rule:nonzero;stroke:none;stroke-width:1;stroke-linecap:round;stroke-linejoin:round;stroke-miterlimit:4;stroke-dasharray:none;stroke-dashoffset:0;stroke-opacity:1;marker:none;color-rendering:auto;image-rendering:auto;shape-rendering:auto;text-rendering:auto;enable-background:accumulate" />
    <rect
       y="11"
       x="9"
       height="1"
       width="2"
       id="rect4304-6-2"
       style="color:#000000;clip-rule:nonzero;display:inline;overflow:visible;visibility:visible;opacity:0.4;isolation:auto;mix-blend-mode:normal;color-interpolation:sRGB;color-interpolation-filters:linearRGB;solid-color:#000000;solid-opacity:1;fill:#ffffff;fill-opacity:1;fill-rule:nonzero;stroke:none;stroke-width:1;stroke-linecap:round;stroke-linejoin:round;stroke-miterlimit:4;stroke-dasharray:none;stroke-dashoffset:0;stroke-opacity:1;marker:none;color-rendering:auto;image-rendering:auto;shape-rendering:auto;text-rendering:auto;enable-background:accumulate" />
    <rect
       y="11"
       x="13"
       height="1"
       width="2"
       id="rect4304-6-2-4"
       style="color:#000000;clip-rule:nonzero;display:inline;overflow:visible;visibility:visible;opacity:0.4;isolation:auto;mix-blend-mode:normal;color-interpolation:sRGB;color-interpolation-filters:linearRGB;solid-color:#000000;solid-opacity:1;fill:#ffffff;fill-opacity:1;fill-rule:nonzero;stroke:none;stroke-width:1;stroke-linecap:round;stroke-linejoin:round;stroke-miterlimit:4;stroke-dasharray:none;stroke-dashoffset:0;stroke-opacity:1;marker:none;color-rendering:auto;image-rendering:auto;shape-rendering:auto;text-rendering:auto;enable-background:accumulate" />
  </g>
  <rect
     y="7"
     x="10"
     height="1"
     width="1"
     id="rect2380"
     style="opacity:0.4;vector-effect:none;fill:#ffffff;fill-opacity:1;stroke:none;stroke-width:1;stroke-linecap:butt;stroke-linejoin:miter;stroke-miterlimit:4;stroke-dasharray:none;stroke-dashoffset:0;stroke-opacity:0.43382353;marker:none" />
  <g
     style="fill:#9cde4a;stroke:#5ca12a;stroke-width:0.727;stroke-linecap:round;stroke-linejoin:round"
     transform="translate(4)"
     id="g2388">
    <path
       sodipodi:nodetypes="ccccc"
       inkscape:connector-curvature="0"
       style="stroke:#0f5a00;stroke-width:1;stroke-miterlimit:4;stroke-dasharray:none;stroke-opacity:0.43382353"
       id="path2382"
       d="m 9.5160424,6.5084746 h 1.9999996 v 2 H 9.5160424 Z" />
    <rect
       y="7"
       x="10"
       height="1"
       width="1"
       id="rect2384"
       style="opacity:0.4;vector-effect:none;fill:#ffffff;fill-opacity:1;stroke:none;stroke-width:1;stroke-linecap:butt;stroke-linejoin:miter;stroke-miterlimit:4;stroke-dasharray:none;stroke-dashoffset:0;stroke-opacity:0.43382353;marker:none" />
  </g>
</svg>

<?xml version="1.0" encoding="UTF-8" standalone="no"?>
<svg xmlns:rdf="http://www.w3.org/1999/02/22-rdf-syntax-ns#" xmlns="http://www.w3.org/2000/svg" version="1.1" xmlns:cc="http://creativecommons.org/ns#" xmlns:xlink="http://www.w3.org/1999/xlink" viewBox="0 0 16 16" xmlns:dc="http://purl.org/dc/elements/1.1/">
 <metadata>
  <rdf:RDF>
   <cc:Work rdf:about="">
    <dc:format>image/svg+xml</dc:format>
    <dc:type rdf:resource="http://purl.org/dc/dcmitype/StillImage"/>
    <dc:title/>
   </cc:Work>
  </rdf:RDF>
 </metadata>
 <defs>
  <linearGradient id="linearGradient3940" x1="25.132" xlink:href="#linearGradient3600" gradientUnits="userSpaceOnUse" y1=".98521" gradientTransform="matrix(.28571 0 0 .30420 1.1429 .23260)" x2="25.132" y2="47.013"/>
  <linearGradient id="linearGradient3600">
   <stop stop-color="#f4f4f4" offset="0"/>
   <stop stop-color="#dbdbdb" offset="1"/>
  </linearGradient>
  <linearGradient id="linearGradient3095" x1="24" xlink:href="#linearGradient3977" gradientUnits="userSpaceOnUse" y1="6.9231" gradientTransform="matrix(.24324 0 0 .35135 2.1622 -.43243)" x2="24" y2="41.077"/>
  <linearGradient id="linearGradient3977">
   <stop stop-color="#fff" offset="0"/>
   <stop stop-color="#fff" stop-opacity=".23529" offset="0"/>
   <stop stop-color="#fff" stop-opacity=".15686" offset="1"/>
   <stop stop-color="#fff" stop-opacity=".39216" offset="1"/>
  </linearGradient>
  <linearGradient id="linearGradient3092" x1="-51.786" xlink:href="#linearGradient3104-9" gradientUnits="userSpaceOnUse" y1="50.786" gradientTransform="matrix(.25379 0 0 .30502 19.129 -.68548)" x2="-51.786" y2="2.9062"/>
  <linearGradient id="linearGradient3104-9">
   <stop stop-opacity=".33951" offset="0"/>
   <stop stop-opacity=".24691" offset="1"/>
  </linearGradient>
  <radialGradient id="radialGradient3259-3" gradientUnits="userSpaceOnUse" cy="48.605" cx="64.575" gradientTransform="matrix(0 .38529 -.41959 0 32.389 -16.793)" r="31">
   <stop stop-color="#cdf87e" offset="0"/>
   <stop stop-color="#a2e34f" offset=".26238"/>
   <stop stop-color="#68b723" offset=".66094"/>
   <stop stop-color="#1d7e0d" offset="1"/>
  </radialGradient>
  <clipPath id="clipPath2442" clipPathUnits="userSpaceOnUse">
   <rect height="5" width="9" y="11" x="2" fill="#85026c"/>
  </clipPath>
  <clipPath id="clipPath2446" clipPathUnits="userSpaceOnUse">
   <rect height="5" width="9" y="-.000013" x="2" fill="#85026c"/>
  </clipPath>
 </defs>
 <g clip-path="url(#clipPath2442)" transform="translate(5 -11)">
  <path d="m3 1c2.2915 0 10 0.0008904 10 0.0008904v13.999h-10v-14z" fill="url(#linearGradient3940)"/>
  <path d="m12.5 14.5h-9v-13h9z" stroke="url(#linearGradient3095)" stroke-linecap="round" fill="none"/>
  <path stroke-linejoin="round" d="m2.5 0.49997c2.5207 0 11 0.000954 11 0.000954l0.000013 14.999h-11c0-5 0-10 1e-7 -15z" stroke="url(#linearGradient3092)" stroke-width=".99992" fill="none"/>
 </g>
 <g clip-path="url(#clipPath2446)" transform="translate(5 11)">
  <path d="m3 1c2.2915 0 10 0.0008904 10 0.0008904v13.999h-10v-14z" fill="url(#linearGradient3940)"/>
  <path d="m12.5 14.5h-9v-13h9z" stroke="url(#linearGradient3095)" stroke-linecap="round" fill="none"/>
  <path stroke-linejoin="round" d="m2.5 0.49997c2.5207 0 11 0.000954 11 0.000954l0.000013 14.999h-11c0-5 0-10 1e-7 -15z" stroke="url(#linearGradient3092)" stroke-width=".99992" fill="none"/>
 </g>
 <path stroke-linejoin="round" d="m9.516 6.5085h2v2h-2z" stroke-opacity=".43382" stroke="#0f5a00" stroke-linecap="round" fill="#9cde4a"/>
 <g stroke-linejoin="round" transform="translate(-7.9926 -4)" stroke="#5ca12a" stroke-linecap="round" stroke-width=".727" fill="#9cde4a">
  <path style="color:#000000" d="m10.5 10.5v-2.0073h3v2.0073h2.0073v3h-2.007v2.0073h-3v-2.007h-2.0073v-3z" fill="url(#radialGradient3259-3)"/>
  <g>
   <path stroke-linejoin="round" opacity=".5" style="color-rendering:auto;color:#000000;isolation:auto;mix-blend-mode:normal;shape-rendering:auto;solid-color:#000000;image-rendering:auto" d="m10.5 10.5v-2.0073h3v2.0073h2.0073v3h-2.007v2.0073h-3v-2.007h-2.0073v-3z" stroke="#0f5a00" stroke-linecap="round" stroke-width="1" fill="none"/>
   <g fill="#fff">
    <rect opacity=".5" style="color-rendering:auto;color:#000000;isolation:auto;mix-blend-mode:normal;shape-rendering:auto;solid-color:#000000;image-rendering:auto" height="1" width="2" y="9" x="11"/>
    <rect opacity=".2" style="color-rendering:auto;color:#000000;isolation:auto;mix-blend-mode:normal;shape-rendering:auto;solid-color:#000000;image-rendering:auto" height="1" width="2" y="14" x="11"/>
    <rect opacity=".4" style="color-rendering:auto;color:#000000;isolation:auto;mix-blend-mode:normal;shape-rendering:auto;solid-color:#000000;image-rendering:auto" height="1" width="2" y="11" x="9"/>
    <rect opacity=".4" style="color-rendering:auto;color:#000000;isolation:auto;mix-blend-mode:normal;shape-rendering:auto;solid-color:#000000;image-rendering:auto" height="1" width="2" y="11" x="13"/>
   </g>
  </g>
 </g>
 <rect opacity=".4" height="1" width="1" y="7" x="10" fill="#fff"/>
 <g stroke-linejoin="round" transform="translate(4)" stroke="#5ca12a" stroke-linecap="round" stroke-width=".727" fill="#9cde4a">
  <path d="m9.516 6.5085h2v2h-2z" stroke-opacity=".43382" stroke="#0f5a00" stroke-width="1"/>
  <rect opacity=".4" height="1" width="1" y="7" x="10" fill="#fff"/>
 </g>
</svg>
